X: 28003
T: Moving Bogs, The
R: reel
M: 4/4
K: Dmajor
"D"d2Ac d2Ac|"G"dcdf "A7"ecAc|"D"dcdA "G"BAGF|"Em"EFGA "D"FDD2:|
"D"defg afdf|"G"g2bg "A7"ecAc|"D"defg afdf|"Em"efge "D"fdd2|
"D"defg afdf|"G"g2bg "A7"ecAc|"D"dedA "G"BAGF|"Em"EFGA "D"FDD2||

